!!!cenid: 16xx:1691
!!!COM: Förster, Kaspar
!!!COM-rismid:
!!!CDT:
!!!CNT:
!!!OTL: Così va chi serve donna -
!!!PDT:
!!!AGN:
!!!SMS-siglum: S-Uu
!!!SMS-shelfmark: Vok. mus. i hs. 2:5
!!!SMS-shelfwork:
!!!SMS-variant:
!!!SMS-altvar:
!!!NIFC-rismid: 190008712
!!!URL-scan: https://www2.musik.uu.se/duben/presentationSource1.php?Select_Dnr=818
!!!ONB-nifc: UWAGA: poszczególne partie dostępne po kliknięciu w „browse part”. Informacje nt stron tytułowych w opisie na stronie lub na RISM.
!!!key: g
**kern	**fba	**dynam	**kern	**fba	**text	**dynam	**kern	**text	**dynam	**kern	**text	**dynam
*	*	*	*group1	*	*	*	*group1	*	*	*group1	*	*
*part4	*	*part4	*part3	*	*part3	*part3	*part2	*part2	*part2	*part1	*part1	*
*staff4	*	*	*staff3	*	*staff3	*	*staff2	*staff2	*	*staff1	*staff1	*
*I"[bc]	*	*	*I"Basso.	*	*	*	*I"Sop. 2	*	*	*I"Sop. 1. Sop:	*	*
*I'[bc]	*	*	*I'B	*	*	*	*I'S 2	*	*	*I'S 1	*	*
*	*	*	*Ibass	*	*	*	*Isoprn	*	*	*Isoprn	*	*
*	*	*	*ICvox	*	*	*	*ICvox	*	*	*ICvox	*	*
*IGcont	*	*	*IGsolo	*	*	*	*IGsolo	*	*	*IGsolo	*	*
*>[A,A,B,B]	*	*	*>[A,A,B,B]	*	*	*	*>[A,A,B,B]	*	*	*>[A,A,B,B]	*	*
*clefF4	*	*	*clefF4	*	*	*	*clefC1	*	*	*clefC1	*	*
*k[b-]	*	*	*k[b-]	*	*	*	*k[b-]	*	*	*k[b-]	*	*
*M3/2	*	*	*M3/2	*	*	*	*M3/2	*	*	*M3/2	*	*
=1-	=1-	=1-	=1-	=1-	=1-	=1-	=1-	=1-	=1-	=1-	=1-	=1-
*>A	*	*	*>A	*	*	*	*>A	*	*	*>A	*	*
*all\right	*	*	*all\right	*	*	*	*all\right	*	*	*all\right	*	*
!LO:TX:t=â.3.	!	!	!	!	!	!	!	!	!	!	!	!
!LO:TX:t=[Förster]	!	!	!LO:TX:t=[Förster]	!	!	!	!	!	!	!	!	!
!LO:TX:b:t=Cosi úa	!	!	!LO:TX:i:t=a 3	!	!	!	!LO:TX:i:t=a 3 2 Soprani e Basso.	!	!	!LO:TX:i:t=a.3. G S. .B. di forster	!	!
2r	.	.	2r	.	.	.	1.r	.	.	1.r	.	.
*	*	*	*2\right	*	*	*	*	*	*	*	*	*
2G\	.	.	2B-\	.	Co-	.	.	.	.	.	.	.
2D/	#	.	2A\	.	-si	.	.	.	.	.	.	.
=2-	=2-	=2-	=2-	=2-	=2-	=2-	=2-	=2-	=2-	=2-	=2-	=2-
2GG/	.	.	2G\	.	ua	.	2r	.	.	2r	.	.
*	*	*	*	*	*ij	*	*	*	*	*2\right	*	*
2C/	7 5	.	2C/	7 5	co-	.	2g/	Co-	.	2b-\	co-	.
!	!	!	!LO:TX:t=P:problem:kreska pseudotaktowa	!	!	!	!	!	!	!	!	!
2D/	#	.	2D/	#	-si-	.	2f#X/	-si	.	2a\	-si	.
=3-	=3-	=3-	=3-	=3-	=3-	=3-	=3-	=3-	=3-	=3-	=3-	=3-
1.GG/	.	.	2GG/	.	-ua	.	2g/	ua	.	2g/	ua	.
*	*	*	*	*	*Xij	*	*	*	*	*	*	*
.	.	.	2r	.	.	.	2r	.	.	2r	.	.
!	!	!	!	!	!	!	!LO:TX:t=P:problem:kreska pseudotaktowa	!	!	!LO:TX:t=P:problem:kreska pseudotaktowa	!	!
.	.	.	2r	.	.	.	2r	.	.	2r	.	.
=4-	=4-	=4-	=4-	=4-	=4-	=4-	=4-	=4-	=4-	=4-	=4-	=4-
2G\	.	.	2G\	.	chi	.	2g/	chi	.	2b-\	chi	.
*	*	*	*	*	*	*	*2\right	*	*	*	*	*
1F\	.	.	2.F\	.	ser-	.	2.a\	ser-	.	2.cc\	ser-	.
.	.	.	4F\	.	-ve	.	4b-\	-ue	.	4dd\	-ue	.
=5-	=5-	=5-	=5-	=5-	=5-	=5-	=5-	=5-	=5-	=5-	=5-	=5-
1.E-X\	6	.	2E-X\	8 6	don-	.	2cc\	don-	.	2ee-X\	don-	.
.	5	.	2E-\	6	-na	.	2cc\	-na	.	2ee-\	-na	.
!	!	!	!	!	!	!	!LO:TX:t=P:problem:kreska pseudotaktowa	!	!	!	!	!
.	.	.	2E-\	7 5	che	.	2b-\	che	.	2dd\	che	.
=6-	=6-	=6-	=6-	=6-	=6-	=6-	=6-	=6-	=6-	=6-	=6-	=6-
2F\	4	.	2F\	4	fe-	.	2b-\	fe-	.	2cc\	fe-	.
1FF/	3	.	2.FF/	3	-de	.	2.b-\	-de	.	2.cc\	-de	.
.	.	.	4FF/	.	non	.	4a\	non	.	4cc\	no(n)	.
=7-	=7-	=7-	=7-	=7-	=7-	=7-	=7-	=7-	=7-	=7-	=7-	=7-
1.BB-/	.	.	1.BB-/	.	ha	.	1.b-\	ha	.	1.dd\	ha	.
=8-	=8-	=8-	=8-	=8-	=8-	=8-	=8-	=8-	=8-	=8-	=8-	=8-
2BB-/	.	.	2BB-/	.	chi	.	2b-\	chi	.	2dd\	chi	.
2.C/	8 6	.	2.C/	8 6	ser-	.	2.a\	ser-	.	2.cc\	ser-	.
4D/	.	.	4D/	7 5	-ue	.	4a\	-ue	.	4cc\	-ue	.
!	!	!	!	!	!	!	!LO:LB:g=original	!	!	!	!	!
=9-	=9-	=9-	=9-	=9-	=9-	=9-	=9-	=9-	=9-	=9-	=9-	=9-
1E-X\	.	.	2E-X\	.	don-	.	2g/	don-	.	2cc\	don-	.
.	.	.	2E-\	.	-na	.	2g/	-na	.	2cc\	-na	.
2C/	7	.	2C/	7 5	che	.	2g/	che	.	2b-\	che	.
=10-	=10-	=10-	=10-	=10-	=10-	=10-	=10-	=10-	=10-	=10-	=10-	=10-
2D\	6 4	.	2D/	6 4	fe-	.	2g/	fe-	.	2b-\	fe-	.
1DD/	#	.	2.D/	.	-de	.	2.g/	-de	.	2.a\	-de	.
!	!	!	!LO:LB:g=original	!	!	!	!LO:TX:a:t=P:problem:# below	!	!	!LO:SIC:v:t=custos b	!	!
.	.	.	4D/	.	non	.	4f#X/	no(n)	.	4b-\	non	.
!	!	!	!	!	!	!	!	!	!	!LO:LB:g=original	!	!
=11-	=11-	=11-	=11-	=11-	=11-	=11-	=11-	=11-	=11-	=11-	=11-	=11-
2GG/	.	.	2G\	.	ha	.	2g/	ha	.	2b-\	ha	.
!	!	!LO:DY:t=forte	!	!	!	!	!	!	!	!	!	!
2C/	7 5	f	2C/	7 5	co-	.	2g/	co-	.	2b-\	co-	.
2D/	.	.	2D/	.	-si	.	2f#X/	-si	.	2a\	-si	.
=12-	=12-	=12-	=12-	=12-	=12-	=12-	=12-	=12-	=12-	=12-	=12-	=12-
2GG/	.	.	2GG/	.	ua	.	2g/	ua	.	2g/	ua	.
!	!	!LO:DY:t=pian	!	!	!	!LO:DY:a:t=pian	!	!	!	!	!	!
2C/	7 5	p	2C/	7 5	co-	p	2g/	co-	.	2b-\	co-	.
2D/	.	.	2D/	.	-si	.	2f#X/	-si	.	2a\	-si	.
=13-	=13-	=13-	=13-	=13-	=13-	=13-	=13-	=13-	=13-	=13-	=13-	=13-
2GG/	.	.	2GG/	.	ua	.	2g/	ua	.	2g/	ua	.
2r	.	.	2r	.	.	.	2r	.	.	2r	.	.
2r	.	.	2r	.	.	.	2r	.	.	2r	.	.
=14:|!|:-	=14:|!|:-	=14:|!|:-	=14:|!|:-	=14:|!|:-	=14:|!|:-	=14:|!|:-	=14:|!|:-	=14:|!|:-	=14:|!|:-	=14:|!|:-	=14:|!|:-	=14:|!|:-
*>B	*	*	*>B	*	*	*	*>B	*	*	*>B	*	*
*M2/1	*	*	*M2/1	*	*	*	*M2/1	*	*	*M2/1	*	*
*met(O|)	*	*	*met(O|)	*	*	*	*met(c|)	*	*	*met(O|)	*	*
!LO:TX:b:t=Ho scoperto.	!	!	!	!	!	!	!	!	!	!	!	!
2GG/	.	.	4r	.	.	.	1r	.	.	1r	.	.
.	.	.	8G\	.	Ho	.	.	.	.	.	.	.
.	.	.	8A\	.	sco-	.	.	.	.	.	.	.
2AA/	6	.	8B-\	.	-per-	.	.	.	.	.	.	.
.	5	.	8G\	.	-to	.	.	.	.	.	.	.
.	.	.	8F\	.	cha	.	.	.	.	.	.	.
!	!	!	!LO:TX:t=P:problem:kreska pseudotaktowa	!	!	!	!	!	!	!	!	!
.	.	.	8E-X\	.	piu	.	.	.	.	.	.	.
1BB-/	.	.	8D/	.	co-	.	4r	.	.	4r	.	.
.	.	.	8D/	.	-si	.	.	.	.	.	.	.
.	.	.	8B-\	.	per	.	8b-\	Ho	.	8dd\	Ho	.
.	.	.	8B-\	.	cui	.	8cc\	sco-	.	8ee-X\	sco-	.
.	.	.	8B-\	.	ui-	.	8dd\	-per-	.	8ff\	-per-	.
.	.	.	8B-\	.	-uie	.	8b-\	-to	.	8dd\	-to	.
.	.	.	8BB-/	.	per	.	8.a\	cha	.	8cc\L	ch'a	.
!	!	!	!	!	!	!	!	!	!	!LO:TX:t=P:problem:kreska pseudotaktowa	!	!
.	.	.	8BB-/	.	cui	.	.	.	.	8b-\J	piu	.
!	!	!	!	!	!	!	!LO:TX:t=P:problem:kreska pseudotaktowa	!	!	!	!	!
.	.	.	.	.	.	.	16g/	piu	.	.	.	.
!	!	!	!LO:LB:g=original	!	!	!	!	!	!	!	!	!
=15-	=15-	=15-	=15-	=15-	=15-	=15-	=15-	=15-	=15-	=15-	=15-	=15-
2F\	.	.	8F\	.	mo-	.	8a\	co-	.	8cc\	co-	.
.	.	.	8F\	.	-re	.	8g/	-si	.	8b-\	-re	.
.	.	.	8F\	.	per	.	8a\	per	.	8cc\	per	.
!	!	!	!	!	!	!	!LO:N:acc=#	!	!	!	!	!
!	!	!	!	!	!	!	!LO:TX:t=P:problem:♯above	!	!	!	!	!
.	.	.	8F\	.	cui	.	8bn\	cui	.	8dd\	cui	.
!	!	!	!	!	!	!	!LO:LB:g=original	!	!	!	!	!
4C/	-	.	8C/	-	ui-	.	8cc\	ui-	.	8ee-X\	ui-	.
.	.	.	8C/	.	-uie	.	8cc\	-uie	.	8ee-\	-uie	.
8F\L	7 5	.	8F\	7- 5	per	.	8cc\	per	.	8ee-\	per	.
!	!	!	!	!	!	!	!LO:TX:t=P:problem:kreska pseudotaktowa	!	!	!	!	!
!LO:SIC:v:t=custos C	!	!	!LO:TX:t=P:problem:kreska pseudotaktowa	!	!	!	!LO:N:acc=#	!	!	!	!	!
8G\J	#	.	8G\	#	cui	.	8b\	cui	.	8dd\	cui	.
!LO:LB:g=original	!	!	!	!	!	!	!	!	!	!LO:LB:g=original	!	!
8C/L	.	.	8C/	-	mo-	.	8cc\	mo-	.	8ee-X\	mo-	.
8D/	.	.	8D/	8 6	-re	.	8b-y\	-re	.	8dd\	-re	.
8Eny/	.	.	8E-X\	7 5	per	.	8b-\	per	.	8dd\	per	.
8F/J	.	.	8F\	.	cui	.	8a\	cui	.	8cc\	cui	.
8BB-/L	.	.	8BB-/	.	ui-	.	8b-\	ui-	.	8dd\	ui-	.
8C-X/	.	.	8C/	8 6	-uie	.	8a\	-uie	.	8cc\	-uie	.
8D/	.	.	8D/	6 4	per	.	8g/	per	.	8b-\	per	.
!	!	!	!	!	!	!	!LO:TX:t=P:problem:kreska pseudotaktowa	!	!	!LO:TX:t=P:problem:kreska pseudotaktowa	!	!
8BB-/J	.	.	8BB-/	7 5	cui	.	8fny/	cui	.	8a\	cui	.
=16-	=16-	=16-	=16-	=16-	=16-	=16-	=16-	=16-	=16-	=16-	=16-	=16-
2Cny/	5 4	.	(4C/	.	mo-	.	(4.f/	mo-	.	16g/LL	mo-	.
.	.	.	.	.	.	.	.	.	.	16f/	.	.
.	.	.	.	.	.	.	.	.	.	16g/	.	.
.	.	.	.	.	.	.	.	.	.	16a/JJ	.	.
.	 3	.	4CC/)	.	.	.	.	.	.	4g/	.	.
.	.	.	.	.	.	.	8e/)	.	.	.	.	.
2FF/	.	.	4FF/	.	-[re]	.	4f/	-re	.	4a\	-re	.
!	!	!	!LO:TX:t=P:problem:kreska pseudotaktowa	!	!	!	!	!	!	!LO:TX:t=P:problem:kreska pseudotaktowa	!	!
.	.	.	4r	.	.	.	(16cc\LL	se-	.	4r	.	.
.	.	.	.	.	.	.	16a\)	.	.	.	.	.
.	.	.	.	.	.	.	(16b-\	-gui	.	.	.	.
!	!	!	!	!	!	!	!LO:TX:t=P:problem:kreska pseudotaktowa	!	!	!	!	!
.	.	.	.	.	.	.	16cc\JJ)	.	.	.	.	.
4FF/	.	.	16F\LL	.	se-	.	4f/	pur	.	4r	.	.
.	.	.	16D\JJ	.	.	.	.	.	.	.	.	.
.	.	.	16E-X\LL	.	-gui	.	.	.	.	.	.	.
.	.	.	16F\JJ	.	.	.	.	.	.	.	.	.
4BB-/	.	.	4BB-/	.	pur	.	4r	.	.	16ff\LL	se-	.
.	.	.	.	.	.	.	.	.	.	16dd\	.	.
!	!	!	!	!	!	!	!	!	!	!LO:TX:t=P:problem:♭above	!	!
.	.	.	.	.	.	.	.	.	.	(16ee-X\	-gui	.
.	.	.	.	.	.	.	.	.	.	16ff\JJ)	.	.
!	!	!	!LO:LB:g=original	!	!	!	!LO:N:vis=4.	!	!	!	!	!
2BB-/	.	.	4r	.	.	.	4r	.	.	4b-\	pur	.
.	.	.	8BB-/	.	se-	.	8b-\	se-	.	8dd\	se-	.
!	!	!	!LO:TX:t=P:problem:kreska pseudotaktowa	!	!	!	!LO:TX:t=P:problem:kreska pseudotaktowa	!	!	!	!	!
.	.	.	8BB-/	.	-gui	.	8b-\	-gui	.	8dd\	-gui	.
=17-	=17-	=17-	=17-	=17-	=17-	=17-	=17-	=17-	=17-	=17-	=17-	=17-
2C/	6	.	8C/	8 6	pur	.	8a\	pur	.	8cc\	pur	.
.	.	.	8C/	7 5	chi	.	8g/	chi	.	8b-\	chi	.
.	.	.	8.C/	7 5	fu-	.	8g/	fu-	.	8b-\	fu-	.
!	!	!	!	!	!	!	!LO:TX:b:t=P:problem:# below	!	!	!	!	!
.	.	.	.	.	.	.	8f#X/	-gir	.	8a\	-gir	.
.	.	.	16C/	.	-gir	.	.	.	.	.	.	.
!	!	!	!	!	!	!	!LO:LB:g=original	!	!	!	!	!
2D/	#	.	8D/	5 #	de-	.	8f#X/	de-	.	8a\	De-	.
.	.	.	8D/	.	-i	.	8f#/	-i	.	8a\	-i	.
.	.	.	8D/	.	bas-	.	8f#/	bas-	.	8a\	bas-	.
!	!	!	!LO:TX:t=P:problem:kreska pseudotaktowa	!	!	!	!LO:TX:t=P:problem:kreska pseudotaktowa	!	!	!	!	!
.	.	.	8D/	.	-ta	.	8g/	-ta	.	8b-\	-ta	.
!	!	!	!	!	!	!	!	!	!	!LO:LB:g=original	!	!
2C/	6	.	4C/	8 6	dir	.	4a\	dir	.	4cc\	dir	.
.	.	.	8.C/	.	bas-	.	8a\	bas-	.	8cc\	bas-	.
.	.	.	.	.	.	.	8b-\	-ta	.	8dd\	-ta	.
.	.	.	16C/	.	-ta	.	.	.	.	.	.	.
8C/L	-	.	8C/	6	dir	.	8cc\	dir	.	8ee-X\	dir	.
8D/	.	.	8D/	6	che	.	8b-\	che	.	8dd\	che	.
8E-X/	6	.	8E-X\	4 6	don-	.	8a\	do(n)-	.	8cc\	don-	.
!	!	!	!	!	!	!	!LO:TX:t=P:problem:kreska pseudotaktowa	!	!	!	!	!
8C/J	.	.	8C/	7 5	-na	.	8g/	-na	.	8b-\	-na	.
=18-	=18-	=18-	=18-	=18-	=18-	=18-	=18-	=18-	=18-	=18-	=18-	=18-
1D\	4	.	1D\	4	se-	.	4g/	se-	.	1a\	se-	.
.	.	.	.	.	.	.	16g/LL	.	.	.	.	.
.	.	.	.	.	.	.	16fny/	.	.	.	.	.
.	.	.	.	.	.	.	16g/	.	.	.	.	.
.	.	.	.	.	.	.	16e/JJ	.	.	.	.	.
.	#	.	.	#	.	.	2f#X/	.	.	.	.	.
1ryy	.	.	1ryy	.	.	.	1ryy	.	.	1ryy	.	.
=19-	=19-	=19-	=19-	=19-	=19-	=19-	=19-	=19-	=19-	=19-	=19-	=19-
*M3/2	*	*	*M3/2	*	*	*	*M3/2	*	*	*M3/2	*	*
2GG/	.	.	2GG/	.	-[gu]i	.	2g/	-gui	.	2g/	-i	.
!	!	!LO:DY:t=forte	!	!	!	!	!	!	!	!	!	!
2C/	.	f	2C/	7 5	co-	.	2g/	co-	.	2b-\	co-	.
!	!	!	!	!	!	!	!LO:TX:b:t=P:problem:# below	!	!	!	!	!
2D/	.	.	2D/	#	-si	.	2f#X/	-si	.	2a\	-si	.
=20-	=20-	=20-	=20-	=20-	=20-	=20-	=20-	=20-	=20-	=20-	=20-	=20-
2GG/	.	.	2GG/	.	ua	.	2g/	ua	.	2g/	ua	.
*	*	*	*	*	*ij	*	*	*	*	*	*	*
!	!	!LO:DY:t=pian	!	!	!	!LO:DY:a:t=piano	!	!	!LO:DY:a:t=piano	!	!	!
2C/	.	p	2C/	.	co-	p	2g/	co-	p	2b-\	co-	.
!LO:TX:t=P:problem:kreska pseudotaktowa	!	!	!	!	!	!	!LO:TX:b:t=P:problem:# below	!	!	!	!	!
2D/	.	.	2D/	.	-si-	.	2f#X/	-si	.	2a\	-si	.
=21-	=21-	=21-	=21-	=21-	=21-	=21-	=21-	=21-	=21-	=21-	=21-	=21-
!	!	!LO:DY:t=f.	!	!	!	!	!	!	!	!	!	!
2G\	.	f	2G\	.	-ua	.	2g\	ua	.	2b-\	ua	.
*	*	*	*	*	*Xij	*	*	*ij	*	*	*ij	*
!	!	!	!	!	!	!	!	!	!LO:DY:a:t=forte	!	!	!
2F\	7 5	.	2F\	7- 5	co-	.	2cc\	co-	f	2ee-X\	co-	.
!	!	!	!	!	!	!	!LO:N:acc=#	!	!	!	!	!
!	!	!	!	!	!	!	!LO:TX:t=P:problem:♯above	!	!	!	!	!
2G\	#	.	2G\	#	-si	.	2bn\	-si	.	2dd\	-si	.
!	!	!	!LO:LB:g=original	!	!	!	!	!	!	!	!	!
=22-	=22-	=22-	=22-	=22-	=22-	=22-	=22-	=22-	=22-	=22-	=22-	=22-
2C/	.	.	2C/	-	vua	.	2cc\	ua	.	2cc\	ua	.
!	!	!LO:DY:t=p.	!	!	!	!	!	!	!LO:DY:a:t=pia	!	!	!
2F\	7 5	p	2F\	7- 5	co-	.	2cc\	co-	p	2ee-X\	co-	.
!	!	!	!	!	!	!	!LO:N:acc=#	!	!	!	!	!
!	!	!	!LO:TX:t=P:problem:kreska pseudotaktowa	!	!	!	!LO:TX:t=P:problem:♯above	!	!	!	!	!
2G\	#	.	2G\	8 6	-si	.	2bn\	-si	.	2dd\	-si	.
=23-	=23-	=23-	=23-	=23-	=23-	=23-	=23-	=23-	=23-	=23-	=23-	=23-
1.C/	-	.	2C/	.	ua,	.	2cc\	ua	.	2cc\	ua	.
*	*	*	*	*	*	*	*	*Xij	*	*	*Xij	*
.	.	.	2r	.	.	.	2r	.	.	2r	.	.
!	!	!	!LO:TX:t=P:problem:kreska pseudotaktowa	!	!	!	!	!	!	!	!	!
.	.	.	2r	.	.	.	2r	.	.	2r	.	.
!	!	!	!	!	!	!	!LO:LB:g=original	!	!	!LO:LB:g=original	!	!
=24-	=24-	=24-	=24-	=24-	=24-	=24-	=24-	=24-	=24-	=24-	=24-	=24-
1.C/	.	.	2C/	-	che	.	2cc\	che	.	2ee-X\	che	.
.	.	.	2.C/	.	ser-	.	2.cc\	ser-	.	2.ee-\	ser-	.
!	!	!	!LO:TX:t=P:problem:kreska pseudotaktowa	!	!	!	!	!	!	!	!	!
.	.	.	4C/	.	-ue	.	4cc\	-se	.	4ee-\	-ue	.
=25-	=25-	=25-	=25-	=25-	=25-	=25-	=25-	=25-	=25-	=25-	=25-	=25-
!LO:N:vis=1	!	!	!	!	!	!	!	!	!	!	!	!
1.D\	6	.	2D/	8 6	don-	.	2b-y\	don-	.	2dd\	don-	.
.	.	.	2D/	.	-na	.	2b-\	-na	.	2dd\	-na	.
!	!	!	!LO:TX:t=P:problem:kreska pseudotaktowa	!	!	!	!	!	!	!	!	!
.	.	.	2D/	.	che	.	2b-\	che	.	2dd\	che	.
=26-	=26-	=26-	=26-	=26-	=26-	=26-	=26-	=26-	=26-	=26-	=26-	=26-
2E-X\	4	.	2E-X\	6 5	fe-	.	2b-\	fe-	.	2cc\	fe-	.
2F\	3	.	2.F\	.	-de	.	2.b-\	-de	.	2.cc\	-de	.
!LO:SIC:v:t=custos B	!	!	!	!	!	!	!	!	!	!	!	!
2FF/	.	.	.	.	.	.	.	.	.	.	.	.
!	!	!	!LO:TX:t=P:problem:kreska pseudotaktowa	!	!	!	!	!	!	!	!	!
.	.	.	4FF/	.	non	.	4a\	no(n)	.	4cc\	non	.
!LO:LB:g=original	!	!	!	!	!	!	!	!	!	!	!	!
=27-	=27-	=27-	=27-	=27-	=27-	=27-	=27-	=27-	=27-	=27-	=27-	=27-
2BB-/	.	.	2BB-/	.	ha	.	2b-\	ha	.	2dd\	ha	.
2C/	6	.	2C/	6	.	.	4a\	.	.	4cc\	.	.
.	.	.	.	5	.	.	4g\	.	.	4b-\	.	.
2D/	.	.	2D/	.	.	.	4fny/	.	.	4a\	.	.
.	.	.	.	.	.	.	4g/	.	.	4b-\	.	.
=28-	=28-	=28-	=28-	=28-	=28-	=28-	=28-	=28-	=28-	=28-	=28-	=28-
2AA/	.	.	2AA/	.	.	.	2a\	.	.	2cc\	.	.
2BB-/	6	.	2BB-/	6	.	.	4g/	.	.	4b-\	.	.
.	.	.	.	5	.	.	4f/	.	.	4a\	.	.
2C/	.	.	2C/	.	.	.	4e/	.	.	4g/	.	.
.	.	.	.	.	.	.	4f/	.	.	4a\	.	.
=29-	=29-	=29-	=29-	=29-	=29-	=29-	=29-	=29-	=29-	=29-	=29-	=29-
1GG/	.	.	2GG/	.	.	.	2g/	.	.	2b-\	.	.
.	.	.	2r	.	.	.	2r	.	.	2r	.	.
2AA/	.	.	2AA/	6	che	.	2f/	che	.	2a\	che	.
=30-	=30-	=30-	=30-	=30-	=30-	=30-	=30-	=30-	=30-	=30-	=30-	=30-
2BB-/	6 5	.	2BB-/	6 5	fe-	.	2f/	fe-	.	2g/	fe-	.
1C/	4	.	2.C/	.	-de	.	2.f/	-de	.	2.g/	-de	.
!	!	!	!LO:TX:t=P:problem:kreska pseudotaktowa	!	!	!	!	!	!	!	!	!
.	3	.	4C/	.	non	.	4e/	no(n)	.	4g/	no(n)	.
=31-	=31-	=31-	=31-	=31-	=31-	=31-	=31-	=31-	=31-	=31-	=31-	=31-
2F\	.	.	2F\	.	ha	.	2f/	ha	.	2a\	ha	.
2G\	.	.	2B-\	.	co-	.	2r	.	.	2r	.	.
2D/	#	.	2A\	.	-si	.	2r	.	.	2r	.	.
=32-	=32-	=32-	=32-	=32-	=32-	=32-	=32-	=32-	=32-	=32-	=32-	=32-
2GG/	.	.	2G\	.	ua	.	2r	.	.	2r	.	.
!	!	!LO:DY:t=f.	!	!	!	!	!	!	!LO:DY:a:t=fort	!	!	!
2C/	.	f	2C/	.	co-	.	2g/	co-	f	2b-\	co-	.
!	!	!	!	!	!	!	!LO:TX:b:t=P:problem:# below	!	!	!	!	!
2D/	#	.	2D/	.	-si	.	2f#X/	-si	.	2a\	-si	.
!	!	!	!LO:LB:g=original	!	!	!	!	!	!	!	!	!
=33-	=33-	=33-	=33-	=33-	=33-	=33-	=33-	=33-	=33-	=33-	=33-	=33-
2GG/	.	.	2GG/	.	ua	.	2g/	ua	.	2g/	ua	.
*	*	*	*	*	*	*	*	*	*	*	*ij	*
!	!	!LO:DY:t=p.	!	!	!	!	!	!	!LO:DY:a:t=pian	!	!	!LO:DY:t=pian
2C/	7 5	p	2C/	.	co-	.	2g/	co-	p	2b-\	co-	p
!	!	!	!LO:TX:t=P:problem:kreska pseudotaktowa	!	!	!	!LO:TX:b:t=P:problem:# below	!	!	!	!	!
2D/	#	.	2D/	.	-si	.	2f#X/	-si	.	2a\	-si	.
=34-	=34-	=34-	=34-	=34-	=34-	=34-	=34-	=34-	=34-	=34-	=34-	=34-
2GG/	.	.	2GG/	.	ua	.	2g/	ua	.	2g/	ua	.
2r	.	.	2r	.	.	.	2r	.	.	2r	.	.
2r	.	.	2r	.	.	.	2r	.	.	2r	.	.
=:|!-	=:|!-	=:|!-	=:|!-	=:|!-	=:|!-	=:|!-	=:|!-	=:|!-	=:|!-	=:|!-	=:|!-	=:|!-
*-	*-	*-	*-	*-	*-	*-	*-	*-	*-	*-	*-	*-
!!!system-decoration: [(g1)]s4
!!!AIN: 1 bass 2 soprn
!!!ENC: Berenika Jozajtis
!!!END: 2022-01-21
!!!EED: Andrzej Borzym
!!!EEV: 2022-01-29
